X:2457
L:1/8
M:2/4
K:C
"C" EG EG |"G7" GF/F/ FF | FA FA |"C" AG/G/ GG | Ge Ge |"G7" ed/d/ dd | cB/B/ BB |1"C" AG/G/ GG :|2 
"C" ce c z ||[K:G]"G" D>G FG |"Am" A/B/c/d/ e2 |"D7" e>F FF |"G" e>G GG |"Em" G>B ^AB | 
"B7" c/B/A/G/ F2 |"Em" GE GE |"B7" B2 z2 |:[K:C]"G7" BA FD |"C" AG G2 |"G7" d/f/d/f/ G2 | 
"C" c/e/c/e/ A2 |"G7" BA FD |"C" AG G2 |"F" F/A/A/c/"G7" D/G/G/B/ |"C" cc c z ::[K:F]"F" C>F AA | 
 d/c/=B/d/ c2 | C>F AA |"C7" c/B/A/c/ B2 | E>G BB | f/e/^d/f/ e2 | e/d/^c/d/ d/=c/=B/c/ | 
"F" _B/A/^G/A/ F2 | C>F AA | d/c/=B/d/ c2 | C>F AA |"C7" c/B/A/c/ B2 |"Bb" D/E/F/G/ A/B/c/d/ | 
"F" cc z A |"C7" BB z E |"F" FA F z ::"F" f/e/d/f/"Am" ec |"Bb" d/c/B/d/"F" cF |"C7" E/G/B/d/ cc | 
"F" F/A/c/d/ cc | f/e/d/f/"A7" eA |"Bb" d/c/B/d/"F" cF |"C7" B/A/G/B/"F" A/G/F/A/ | 
"C7" ce"F" f z :|

